X: 1
T:Jenny's Wedding
R:reel
H:2nd part with variations
D:Jerry Holland: The Fiddlesticks Collection
D:Gear\'oid \'O hAllmhur\'ain: Traditional Music from Clare and beyond
Z:id:hn-reel-196
M:C|
K:D
D2 (3FED AD (3FED|Adde fded|cAAB =c3d|eaag edcA|
D2FA dfed|cAAB cdeg|fdec d2cA|(3Bcd AG FDD2:|
d2fd Adfd|cAAB cdec|d2fd Adfd|(3Bcd eg fddA|
d2fd Adfd|(3Bcd ef g2fg|afge d2cA|(3Bcd AG FDD2|
d2fd adfd|ecAB cdec|d2fd adfd|eaag fddA|
d2fd adfd|(3Bcd ef g2fg|afge d2cA|(3Bcd AG FDD2||
